




d1 $ slow 2 $ s "bd(7,16)" # gain 2 # room 0.05
d2 $ s "cpu2*2" # gain 2 # room 0.05
d3 $ s "cp" # room 0.1
d4 $ s "arpy" # gain 1.3 # note 22 # room 0.05
d5 $ stut 4 0.5 0.2 $ s "ade" # room 0.1
