// http://www.contextfreeart.org/gallery/view.php?id=1903
startshape T
CF::Background = [b -1]

// tile {s 2.5}
shape T {
    loop 1 [[r 120 hue 30]] {
        S [[x 0.3]]
    }
}

shape S
rule 3 {
    CIRCLE [[hue 130]]
    loop 4 [[r 20 b 0.007 sat 0.1]] {
        S [s 0.93 0.7 y 0.9]
    }
}
rule {
    CIRCLE [[hue 15]]
    loop 9 [[r 20 b 0.05 hue -3]] {
        S [s 0.3 0.7 y 0.9]
    }
}
rule {
    S [[flip 90]]
}